X:3255
T:Kevin Ryan's
O:england
R:reel
D:Ashplant: Autographed
M:C|
K:D
AF~F2 DF~F2|ABde fede|~f3e dAFA|B2dB BAFB|
AF~F2 DF~F2|ABde fede|f2fe ~f3e|dBAF E4:|
|:~f3e dAFA|B2dB BABd|~f3e defg|afbf afeg|
~f3e dAFA|B2dB BABd|~f3e ~f3e|dBAF E4:|


